X:24402
T:Ghillie Calum
T:The Sword Dance 2+1
C: Arr Archie Cairns
B: 
H:
O:Kevin Fraser
Z:Kevin Fraser
Q:1/4=90
K:HP
M:4/4
L:1/8
R:March
U: R = ///
U: r = //
U: V = !accent!
V:M gstem=up stem=down name="Melody" sname="Melody" 
V:H gstem=up stem=down name="Harmony" sname="Harmony"
V:C gstem=up stem=down name="C-Harmony" sname="C-Harmony"
V:S gstem=up stem=down dyn=up stafflines=1 clef=perc middle=G name="Snare" sname="Snare"" sname=snare
V:B gstem=up stem=down clef=none dyn=up name="Bass" sname="Bass"
V:T gstem=up stem=down clef=none dyn=up name="Tenor" sname="Tenor"
V:BB gstem=up stem=down name="Brass Bass" sname="Bass" transpose=-1  octave=-2 clef=bass
V:BC gstem=up stem=down name="Brass Chord" sname="ABCD-D" transpose=-1
V:BD gstem=up stem=down name="Brass Chord 2" sname="ABCD-B" transpose=-1
V:P gstem=up stem=down name="Piano" sname="Piano" transpose=0 octave=-1
I:MIDI=program 110
%%MIDI gracedivider 4
%%score {M BC BD BB}
%%score {M}
% %MIDI program 109 #bagpipes
%%MIDI vol 100
%%barsperscore 4
%%landscape
[V:M][|"First Step"{gAGAG}A2 {g}c<e {gef}e>d {gBd}B{e}G | {gAGAG}A2 {g}c<e {gef}e>d {gcd}c{e}A | {g}B/c/d {g}c<e {gef}e>d {gBd}B{e}G | {gAGAG}Ae {gcd}ce {Gdc}df {gfg}fe | $
[V:M]  {gAGAG}A2 {g}c<e {gef}e>d {gBd}B{e}G | {gAGAG}A2 {g}c<e {gef}e>d {gcd}c{e}A | {g}B/c/d {g}c<e {gef}e>d {gBd}B{e}G | {gAGAG}Ae {gcd}ce {Gdc}df {gfg}fe | $
[V:M]  {gAGAG}A2 {g}c<e  {gf}g2  {Bd}B{e}G  | {gAGAG}A2 {g}c<e  {ag}a2  {cd}c{e}A  | {ag}a2 {cd}c{e}A {gf}g2  {Bd}B{e}G  | {gAGAG}Ae {gcd}ce {Gdc}df {gfg}fe | $
[V:M]"INTRO"  {gAGAG}A2 {g}c<e  {gf}g2  {Bd}B{e}G  | {gAGAG}A2 {g}c<e  {ag}a2  {GdG}a>e   | {gf}g>a  g/f/e  {Gdc}dg {Bd}B{e}G   | {gf}ga    e/f/g   {a}B/c/d {g}e<a |] 
[V:M][|"Second Step"{gAGAG}A2 {gcd}c{e}A {Gdc}d2 {gBd}B{e}G | {gAGAG}A2 {gcd}c{e}A {Gdc}d2 {gcd}c{e}A | {gBd}B{e}G {g}B<e {Gdc}d2 {gBd}B{e}G | {gAGAG}Ae {gcd}ce {Gdc}df {gfg}fe | $
[V:M]  {gAGAG}A2 {gcd}c{e}A {Gdc}d2 {gBd}B{e}G | {gAGAG}A2 {gcd}c{e}A {Gdc}d2 {gcd}c{e}A | {gBd}B{e}G {g}B<e {Gdc}d2 {gBd}B{e}G | {gAGAG}Ae {gcd}ce {Gdc}df {gfg}fe | $
[V:M]  {gAGAG}A2 {gcd}c<{e}A  {gf}g2  {Bd}B{e}G  | {gAGAG}A2 {gcd}c<{e}A  {ag}a2  {cd}c{e}A  | {ag}a2 {cd}c{e}A {gf}g2  {Bd}B{e}G  | {gAGAG}Ae {gcd}ce {Gdc}df {gfg}fe | $
[V:M]  {gAGAG}A2 {gcd}c<{e}A  {gf}g2  {Bd}B{e}G  | {gAGAG}A2 {g}c<e  {ag}a2  {GdG}a>e   | {gf}g>a  g/f/e  {Gdc}dg {Bd}B{e}G   | {gf}ga    e/f/g   {a}B/c/d {g}e<a |] 
[V:M][|"Quick Time" {g}A<{d}A {g}c<{d}A {Gdc}d2 {g}B<{d}G | {g}A<{d}A {g}c<{d}A {Gdc}d2 {g}c<{d}A | {g}B<{d}G  {a}g>e {Gdc}d2 {g}B<{d}G | {g}A<{d}A {g}c<{d}A {Gdc}d>B {gef}e2 | $
[V:M]  {g}A<{d}A {g}c<{d}A {Gdc}d2 {g}B<{d}G | {g}A<{d}A {g}c<{d}A {Gdc}d2 {g}c<{d}A | {g}B<{d}G  {a}g>e {Gdc}d2 {g}B<{d}G | {g}A<{d}A {g}c<{d}A {Gdc}d>B {gef}e2 | $
[V:M]  {g}A<{d}A {gcd}c<{e}A  {gf}g2  {Bd}B{e}G  | {g}A<{d}A {gcd}c<{e}A  {ag}a2  {cd}c{e}A  | {ag}a2 {cd}c{e}A {gf}g2  {Bd}B{e}G  | {g}A<{d}A {g}c<{d}A {Gdc}d>B {gef}e2  | $
[V:M]  {g}A<{d}A {gcd}c<{e}A  {gf}g2  {Bd}B{e}G  | {g}A<{d}A {g}c<e  {ag}a2  {GdG}a>e   | {gf}g>a  g/f/e  {Gdc}dg {Bd}B{e}G   | {gf}ga    e/f/g   {a}B/c/d {g}e<a |] 

W: The last line of the first part is played as the Introduction for Highland Dancers.
W: There is also a 3+1 version of the Sword Dance

